X:122
T:Cherry Ripe
L:1/4
M:2/2
S:Colin Hume's website,  colinhume.com  - chords can also be printed below the stave.
Q:1/2=110
H:For the dance "Cherry Stones" by Judy Lines
K:C
P:A
"C"EG G2 | "G"AG G2 | "C"G2 cd | "C/G"c2 "G"B2 | "Am"c3B | "F"BA "C"G2 | "Dm"FG/F/ "C"EF/E/ | "G7"D2 G2 |
"C"EG G2 | "G"AG G2 | "C"c2 "Dm"ed | "C/G"c2 "G"B2 | "Am"c3c | "F"dc AF | "C/G"EG "G7"FD | "C"C4 |
P:B
K:G
"G"G3 G | "C"AG- GG | "Am"c3B | "G/D"B2 "D7"A2 | "Bm"D3 E/F/ | "Em"G3 G | "C"FE "Am"BA | "G/D"G2 "D7"F2 |
"G"d3 B | "D7"cB- BA | "G"G3 A/B/ | "D"D4 | "G"d3 B | "D7"cB- BA | "G"G3 A/B/ | "D7"D3/E/ D2 |
"Em"G3 F | "C"EF GA | "Am"G2 "D7"F2 | "G"G4 |]

